icon-themes/breeze_svg/cmd/lc_symbolshapes.heart.svg

<svg viewBox="0 0 24 24" xmlns="http://www.w3.org/2000/svg"><path d="m8.5 4c-2.4852814 0-4.5 2.0147-4.5 4.5 0 .5304.057469 1.0716.28125 1.5 2.2813988 4.258231 5.0381686 4.646628 7.6875 9.9375v.03125c.006615.013253.024636.017936.03125.03125.010927-.021998.020319-.04067.03125-.0625 2.649331-5.290872 5.406101-5.679269 7.6875-9.9375.22378-.4284.28125-.9696.28125-1.5 0-2.4853-2.014718-4.5-4.5-4.5-1.406797 0-2.643886.6452633-3.46875 1.65625-.009047.0110886-.022303.0200733-.03125.03125-.008947-.0111767-.022203-.0201614-.03125-.03125-.824864-1.0109867-2.0619522-1.65625-3.46875-1.65625z" fill="#4d4d4d"/></svg>

<svg xmlns="http://www.w3.org/2000/svg" viewBox="0 0 24 24">
 <path 
     style="fill:#4d4d4d" 
     d="M 8.5 4 C 6.0147186 4 4 6.0147 4 8.5 C 4 9.0304 4.057469 9.5716 4.28125 10 C 6.5626488 14.258231 9.3194186 14.646628 11.96875 19.9375 L 11.96875 19.96875 C 11.975365 19.982003 11.993386 19.986686 12 20 C 12.010927 19.978002 12.020319 19.95933 12.03125 19.9375 C 14.680581 14.646628 17.437351 14.258231 19.71875 10 C 19.94253 9.5716 20 9.0304 20 8.5 C 20 6.0147 17.985282 4 15.5 4 C 14.093203 4 12.856114 4.6452633 12.03125 5.65625 C 12.022203 5.6673386 12.008947 5.6763233 12 5.6875 C 11.991053 5.6763233 11.977797 5.6673386 11.96875 5.65625 C 11.143886 4.6452633 9.9067978 4 8.5 4 z "
     />
 </svg>
